X:5
T:Road to Boston
M:2/4
Q:1/4=100
L:1/8
K:D
%%MIDI channel 1
%%MIDI program 72
%%MIDI transpose 8
%%MIDI grace 1/8
%%MIDI ratio 3 1
LA|Lfz ff|gfe d/d/|cdef|dA FLA|Lfz ff|gfe d/d/|cdef|d2 Ld:|
|:Lf|La3 a|bagf|Lg3 g|agfe|Lf3 f|gfed|cdef|d2 Ld:|

